X: 34140
T: Reel Du Semeur
R: reel
M: 4/4
K: Dmajor
FG|:ABAG F2 A2|f4 d4|ABAG F2 A2|f4 d4|
e3 f g2 fe|dcde fafd|cBcd egec|1 d2 f2 d3 A:|2 d2 f2 d2 df||
a2 g2 e3 f|g2 f2 d3 e|f2 e2 B2 c2|dcde fefg|
a2 g2 e3 f|g2 f2 d3 c|B2 g2 e2 c2|1 d2 dc d3 f:|2 dBAF D4||

